modules/open-iconic/icons/transfer.svg

<svg xmlns="http://www.w3.org/2000/svg" width="8" height="8" viewBox="0 0 8 8">
  <path d="M6 0v1h-6v1h6v1l2-1.5-2-1.5zm-4 4l-2 1.5 2 1.5v-1h6v-1h-6v-1z" />
</svg>

<svg xmlns="http://www.w3.org/2000/svg" width="8" height="8" viewBox="0 0 8 8"><path d="M6 0v1H0v1h6v1l2-1.5L6 0zM2 4L0 5.5 2 7V6h6V5H2V4z"/></svg>
